package/svg/ceiling_spot.svg

<svg width="56" height="56" viewBox="0 0 56 56" fill="none" xmlns="http://www.w3.org/2000/svg">
<path d="M20.7552 11.9411H11.9252C10.6302 11.9411 9.58216 10.8911 9.58216 9.59814V6.71214C9.58216 5.41914 10.6302 4.36914 11.9252 4.36914H34.0302C35.3242 4.36914 36.3732 5.41914 36.3732 6.71214V9.59814C36.3732 10.8911 35.3242 11.9411 34.0302 11.9411H25.4412V25.0491L41.6162 29.3831C43.4532 29.8751 44.9612 31.2111 45.9052 33.1961C47.0342 35.5671 47.3412 38.9661 46.4012 42.4781C45.4592 45.9911 43.4932 48.7781 41.3302 50.2681C39.5202 51.5151 37.5462 51.9191 35.7092 51.4271C35.7092 51.4271 25.3552 48.6521 17.4792 46.5421C11.4082 44.9161 7.80716 38.6751 9.43216 32.6061C9.43916 32.5841 9.44316 32.5641 9.45016 32.5441C10.8402 27.3521 15.6062 23.9651 20.7552 24.1121V11.9411V11.9411ZM36.9232 46.9011C37.7242 47.1171 38.5252 46.6211 39.2762 45.9201C40.4162 44.8581 41.3542 43.2121 41.8752 41.2661C42.3972 39.3201 42.4082 37.4241 41.9522 35.9341C41.6522 34.9521 41.2052 34.1231 40.4042 33.9091C39.6032 33.6931 38.8002 34.1881 38.0492 34.8881C36.9102 35.9511 35.9732 37.5981 35.4522 39.5441C34.9302 41.4901 34.9172 43.3851 35.3742 44.8751C35.6732 45.8581 36.1222 46.6871 36.9232 46.9011V46.9011ZM22.0502 28.9921C18.5192 28.1141 14.9212 30.2261 13.9742 33.7571C13.9692 33.7771 13.9632 33.7981 13.9592 33.8181C13.0012 37.3881 15.1202 41.0601 18.6922 42.0161L30.6372 45.2171C30.2212 43.1861 30.2682 40.7871 30.9262 38.3321C31.5832 35.8761 32.7422 33.7761 34.1182 32.2241L22.9642 29.2361C22.6372 29.2171 22.3282 29.1311 22.0502 28.9921V28.9921Z" fill="black"/>
</svg>

<svg width="100%" height="100%" viewBox="0 0 56 56" version="1.1" xmlns="http://www.w3.org/2000/svg"><g><path d="M20.755,11.941l-8.83,-0c-1.295,-0 -2.343,-1.05 -2.343,-2.343l0,-2.886c0,-1.293 1.048,-2.343 2.343,-2.343l22.105,0c1.294,0 2.343,1.05 2.343,2.343l0,2.886c0,1.293 -1.049,2.343 -2.343,2.343l-8.589,-0l-0,13.108l16.175,4.334c1.837,0.492 3.345,1.828 4.289,3.813c1.129,2.371 1.436,5.77 0.496,9.282c-0.942,3.513 -2.908,6.3 -5.071,7.79c-1.81,1.247 -3.784,1.651 -5.621,1.159c0,0 -10.354,-2.775 -18.23,-4.885c-6.071,-1.626 -9.672,-7.867 -8.047,-13.936c0.007,-0.022 0.011,-0.042 0.018,-0.062c1.39,-5.192 6.156,-8.579 11.305,-8.432l0,-12.171Zm16.168,34.96c0.801,0.216 1.602,-0.28 2.353,-0.981c1.14,-1.062 2.078,-2.708 2.599,-4.654c0.522,-1.946 0.533,-3.842 0.077,-5.332c-0.3,-0.982 -0.747,-1.811 -1.548,-2.025c-0.801,-0.216 -1.604,0.279 -2.355,0.979c-1.139,1.063 -2.076,2.71 -2.597,4.656c-0.522,1.946 -0.535,3.841 -0.078,5.331c0.299,0.983 0.748,1.812 1.549,2.026Zm-14.873,-17.909c-3.531,-0.878 -7.129,1.234 -8.076,4.765c-0.005,0.02 -0.011,0.041 -0.015,0.061c-0.958,3.57 1.161,7.242 4.733,8.198l11.945,3.201c-0.416,-2.031 -0.369,-4.43 0.289,-6.885c0.657,-2.456 1.816,-4.556 3.192,-6.108l-11.154,-2.988c-0.327,-0.019 -0.636,-0.105 -0.914,-0.244Z"/></g></svg>
